public/img/ui/courses/moonshine.svg

<?xml version="1.0" encoding="UTF-8"?>
<svg fill="none" viewBox="0 0 100 100" xmlns="http://www.w3.org/2000/svg">
    <clipPath id="a">
        <path d="m0 0h100v100h-100z"/>
    </clipPath>
    <mask id="b" height="68" maskUnits="userSpaceOnUse" width="67" x="21" y="16">
        <path
            d="m56.6344 67.9682c13.3258 3.638 27.023-4.4193 30.5937-17.9966.1619-.6162.3004-1.2331.4157-1.8497.1924 3.5104-.1509 7.1114-1.0928 10.6928-4.7656 18.1211-23.0469 28.875-40.8322 24.0194-17.7854-4.8555-28.3401-23.4819-23.5745-41.603 4.7656-18.1212 23.0467-28.8751 40.8322-24.0195.9088.2481 1.7986.5321 2.6684.8502-11.9941-1.2667-23.4532 6.4889-26.6739 18.7352-3.5706 13.5774 4.3375 27.5332 17.6634 31.1712z"
            fill="#d9d9d9"/>
    </mask>
    <mask height="68" maskUnits="userSpaceOnUse" width="68" x="18" y="14">
        <path
            d="m54.3315 65.9574c13.5865 3.6405 27.5516-4.4222 31.1922-18.0087.1651-.6166.3063-1.2339.4238-1.851.1962 3.5128-.1538 7.1163-1.1141 10.7-4.8589 18.1333-23.4978 28.8944-41.6311 24.0356s-28.8944-23.4977-24.0356-41.631 23.4976-28.8944 41.631-24.0356c.9265.2482 1.8337.5324 2.7206.8507-12.2288-1.2675-23.912 6.4933-27.1957 18.7479-3.6405 13.5865 4.4223 27.5517 18.0089 31.1921z"
            fill="#d9d9d9"/>
        <path clip-rule="evenodd"
              d="m85.5354 53.5651c-.1801 1.0773-.4135 2.1559-.702 3.2326-4.8589 18.1333-23.4978 28.8944-41.6311 24.0356s-28.8944-23.4977-24.0356-41.631c4.4563-16.6314 20.5045-27.0612 37.1228-24.9262 1.5008.1928 3.0062.4881 4.5082.8906.9265.2482 1.8337.5324 2.7206.8507-.9758-.1011-1.9481-.1448-2.9129-.1332-1.4455.0172-2.8742.1583-4.2728.4155-9.3671 1.7228-17.3809 8.6538-20.01 18.4656-3.6405 13.5865 4.4223 27.5517 18.0089 31.1921 11.8252 3.1686 23.9372-2.5285 29.2791-13.0168.7957-1.5622 1.4411-3.2306 1.9131-4.9919.1651-.6166.3063-1.2339.4238-1.851.0367.6566.0543 1.3164.0524 1.9786-.0053 1.8161-.1572 3.6507-.4645 5.4888zm-3.4474 5.3111c-6.6395 8.011-17.5659 11.8823-28.2742 9.013-14.6535-3.9262-23.3494-18.9881-19.4231-33.6416 2.2813-8.5137 8.3205-15.0153 15.8548-18.1997-13.4376.7354-25.4745 9.9663-29.147 23.6721-4.5729 17.0663 5.5551 34.6086 22.6215 39.1815 16.182 4.3359 32.7918-4.5449 38.368-20.0253zm-21.3158-43.6145.0251-.0938z"
              fill="#000" fill-rule="evenodd"/>
    </mask>
    <g clip-path="url(#a)">
        <path
            d="m50 100c-27.57 0-50-22.43-50-50s22.43-50 50-50 50 22.43 50 50-22.43 50-50 50zm0-98c-26.47 0-48 21.53-48 48s21.53 48 48 48 48-21.53 48-48-21.53-48-48-48z"
            fill="#000"/>
        <g mask="url(#b)">
            <path
                d="m84.1232 47.9341c.0087-6.0079-1.6567-11.8948-4.8028-16.9762 2.7581 4.8762 3.5936 10.6385 2.3368 16.1188-1.2569 5.4805-4.5118 10.2689-9.1051 13.3951-4.5933 3.126-10.1813 4.3556-15.6315 3.4396-5.4501-.916-10.3546-3.9089-13.7191-8.3724-3.3647-4.4635-4.9378-10.0634-4.4006-15.6646.5373-5.6014 3.1447-10.7851 7.2938-14.5004 4.149-3.7153 9.5293-5.6843 15.0504-5.5079 5.521.1764 10.7698 2.485 14.6822 6.4579-4.9461-5.4596-11.6084-8.9874-18.836-9.9738-7.2276-.9863-14.5665.6308-20.7482 4.5718-6.1817 3.9411-10.8181 9.9586-13.1079 17.0125-2.2898 7.054-2.0893 14.7014.567 21.6208 2.6563 6.9192 7.6015 12.6759 13.9809 16.2749 6.3796 3.5991 13.7926 4.8146 20.9581 3.4363 7.1656-1.3782 13.6337-5.2634 18.2864-10.9844 4.6527-5.7209 7.1978-12.918 7.1956-20.348z"
                fill="#ff2d20"/>
        </g>
        <g fill="#ff2d20">
            <path
                d="m54.9396 43.6724c1.429 0 2.5875-1.1803 2.5875-2.6364 0-1.456-1.1585-2.6364-2.5875-2.6364s-2.5875 1.1804-2.5875 2.6364c0 1.4561 1.1585 2.6364 2.5875 2.6364z"/>
            <path
                d="m56.3496 33.3069c1.8687 0 3.3836-1.5436 3.3836-3.4476s-1.5149-3.4476-3.3836-3.4476c-1.8688 0-3.3838 1.5436-3.3838 3.4476s1.515 3.4476 3.3838 3.4476z"/>
            <path
                d="m62.6381 26.4194c.9344 0 1.6918-.7717 1.6918-1.7238 0-.952-.7574-1.7237-1.6918-1.7237s-1.6918.7717-1.6918 1.7237c0 .9521.7574 1.7238 1.6918 1.7238z"/>
            <path
                d="m51.0882 27.3804c.7145 0 1.2938-.5902 1.2938-1.3182s-.5793-1.3182-1.2938-1.3182-1.2938.5902-1.2938 1.3182.5793 1.3182 1.2938 1.3182z"/>
        </g>
        <g mask="url(#c)">
            <path clip-rule="evenodd"
                  d="m84.6787 52.0646c-1.973 4.6303-5.2222 8.6265-9.4053 11.4735h-.0001c-5.4923 3.7379-12.1799 5.2111-18.7055 4.1144-6.525-1.0966-12.3874-4.6784-16.4041-10.0071-4.0162-5.3276-5.8899-12.0053-5.2498-18.6802.6404-6.6752 3.7482-12.861 8.7051-17.2997 3.9027-3.4947 8.7215-5.6998 13.8203-6.3771-.2435-.039-.4876-.0752-.7324-.1087-7.5036-1.0239-15.1253.6541-21.5494 4.7496-6.4249 4.0962-11.2517 10.3559-13.637 17.7038-2.3854 7.3485-2.1763 15.316.5906 22.5235 2.7666 7.2066 7.9137 13.1937 14.543 16.9337 6.6285 3.7395 14.3265 5.0007 21.7661 3.5697l.3777 1.964c-7.9069 1.5209-16.0869.1797-23.1266-3.7918-7.0394-3.9714-12.4962-10.3237-15.4274-17.9588-2.9311-7.6354-3.1524-16.074-.6256-23.8578 2.5267-7.7838 7.6428-14.4239 14.4641-18.7727s14.9194-6.1332 22.8949-5.0448c2.9156.3979 5.7478 1.1706 8.4347 2.2852 4.6627 1.9343 8.8875 4.8984 12.3501 8.7205-3.5331-3.5878-8.0539-5.9456-12.9188-6.7904-1.0795-.1874-2.176-.3004-3.2825-.3357-6.0922-.1947-12.0292 1.9781-16.6076 6.0778s-7.4555 9.8198-8.0484 16.0007c-.5928 6.1807 1.1431 12.36 4.8559 17.2853 3.7127 4.9253 9.1245 8.228 15.1386 9.2387s12.1802-.346 17.2488-3.7955c5.0686-3.4496 8.6602-8.7335 10.0471-14.781.2271-.9903.3923-1.989.4964-2.9903.5316-5.1133-.5299-10.2967-3.0749-14.7962 2.7783 4.4874 4.5102 9.5441 5.0861 14.783.1438 1.3072.2155 2.6258.2136 3.9496.0024 8.1987-2.806 16.1405-7.9401 22.4533-5.1341 6.3129-12.2714 10.6001-20.1784 12.1209l-.3777-1.964c7.44-1.431 14.1636-5.4665 19.0044-11.4188l1.4211 1.1556-1.421-1.1557c3.9987-4.9167 6.5042-10.8853 7.254-17.1765z"
                  fill="#000" fill-rule="evenodd"/>
        </g>
    </g>
</svg>

<svg width="100" height="100" viewBox="0 0 100 100" fill="none" xmlns="http://www.w3.org/2000/svg">
<g clip-path="url(#clip0_872_377)">
<path d="M50 100C22.43 100 0 77.57 0 50C0 22.43 22.43 0 50 0C77.57 0 100 22.43 100 50C100 77.57 77.57 100 50 100ZM50 2C23.53 2 2 23.53 2 50C2 76.47 23.53 98 50 98C76.47 98 98 76.47 98 50C98 23.53 76.47 2 50 2Z" fill="black"/>
<mask id="mask0_872_377" style="mask-type:alpha" maskUnits="userSpaceOnUse" x="21" y="16" width="67" height="68">
<path d="M56.6344 67.9682C69.9602 71.6062 83.6574 63.5489 87.2281 49.9716C87.39 49.3554 87.5285 48.7385 87.6438 48.1219C87.8362 51.6323 87.4929 55.2333 86.551 58.8147C81.7854 76.9358 63.5041 87.6897 45.7188 82.8341C27.9334 77.9786 17.3787 59.3522 22.1443 41.2311C26.9099 23.1099 45.191 12.356 62.9765 17.2116C63.8853 17.4597 64.7751 17.7437 65.6449 18.0618C53.6508 16.7951 42.1917 24.5507 38.971 36.797C35.4004 50.3744 43.3085 64.3302 56.6344 67.9682Z" fill="#D9D9D9"/>
</mask>
<g mask="url(#mask0_872_377)">
<path d="M84.1232 47.9341C84.1319 41.9262 82.4665 36.0393 79.3204 30.9579C82.0785 35.8341 82.914 41.5964 81.6572 47.0767C80.4003 52.5572 77.1454 57.3456 72.5521 60.4718C67.9588 63.5978 62.3708 64.8274 56.9206 63.9114C51.4705 62.9954 46.566 60.0025 43.2015 55.539C39.8368 51.0755 38.2637 45.4756 38.8009 39.8744C39.3382 34.273 41.9456 29.0893 46.0947 25.374C50.2437 21.6587 55.624 19.6897 61.1451 19.8661C66.6661 20.0425 71.9149 22.3511 75.8273 26.324C70.8812 20.8644 64.2189 17.3366 56.9913 16.3502C49.7637 15.3639 42.4248 16.981 36.2431 20.922C30.0614 24.8631 25.425 30.8806 23.1352 37.9345C20.8454 44.9885 21.0459 52.6359 23.7022 59.5553C26.3585 66.4745 31.3037 72.2312 37.6831 75.8302C44.0627 79.4293 51.4757 80.6448 58.6412 79.2665C65.8068 77.8883 72.2749 74.0031 76.9276 68.2821C81.5803 62.5612 84.1254 55.3641 84.1232 47.9341Z" fill="#FF2D20"/>
</g>
<path d="M54.9396 43.6724C56.3686 43.6724 57.5271 42.4921 57.5271 41.036C57.5271 39.58 56.3686 38.3996 54.9396 38.3996C53.5106 38.3996 52.3521 39.58 52.3521 41.036C52.3521 42.4921 53.5106 43.6724 54.9396 43.6724Z" fill="#FF2D20"/>
<path d="M56.3496 33.3069C58.2183 33.3069 59.7332 31.7633 59.7332 29.8593C59.7332 27.9553 58.2183 26.4117 56.3496 26.4117C54.4808 26.4117 52.9658 27.9553 52.9658 29.8593C52.9658 31.7633 54.4808 33.3069 56.3496 33.3069Z" fill="#FF2D20"/>
<path d="M62.6381 26.4194C63.5725 26.4194 64.3299 25.6477 64.3299 24.6956C64.3299 23.7436 63.5725 22.9719 62.6381 22.9719C61.7037 22.9719 60.9463 23.7436 60.9463 24.6956C60.9463 25.6477 61.7037 26.4194 62.6381 26.4194Z" fill="#FF2D20"/>
<path d="M51.0882 27.3804C51.8027 27.3804 52.382 26.7902 52.382 26.0622C52.382 25.3342 51.8027 24.744 51.0882 24.744C50.3737 24.744 49.7944 25.3342 49.7944 26.0622C49.7944 26.7902 50.3737 27.3804 51.0882 27.3804Z" fill="#FF2D20"/>
<mask id="mask1_872_377" style="mask-type:alpha" maskUnits="userSpaceOnUse" x="18" y="14" width="68" height="68">
<path d="M54.3315 65.9574C67.918 69.5979 81.8831 61.5352 85.5237 47.9487C85.6888 47.3321 85.83 46.7148 85.9475 46.0977C86.1437 49.6105 85.7937 53.214 84.8334 56.7977C79.9745 74.931 61.3356 85.6921 43.2023 80.8333C25.069 75.9745 14.3079 57.3356 19.1667 39.2023C24.0255 21.069 42.6643 10.3079 60.7977 15.1667C61.7242 15.4149 62.6314 15.6991 63.5183 16.0174C51.2895 14.7499 39.6063 22.5107 36.3226 34.7653C32.6821 48.3518 40.7449 62.317 54.3315 65.9574Z" fill="#D9D9D9"/>
<path fill-rule="evenodd" clip-rule="evenodd" d="M85.5354 53.5651C85.3553 54.6424 85.1219 55.721 84.8334 56.7977C79.9745 74.931 61.3356 85.6921 43.2023 80.8333C25.069 75.9745 14.3079 57.3356 19.1667 39.2023C23.623 22.5709 39.6712 12.1411 56.2895 14.2761C57.7903 14.4689 59.2957 14.7642 60.7977 15.1667C61.7242 15.4149 62.6314 15.6991 63.5183 16.0174C62.5425 15.9163 61.5702 15.8726 60.6054 15.8842C59.1599 15.9014 57.7312 16.0425 56.3326 16.2997C46.9655 18.0225 38.9517 24.9535 36.3226 34.7653C32.6821 48.3518 40.7449 62.317 54.3315 65.9574C66.1567 69.126 78.2687 63.4289 83.6106 52.9406C84.4063 51.3784 85.0517 49.71 85.5237 47.9487C85.6888 47.3321 85.83 46.7148 85.9475 46.0977C85.9842 46.7543 86.0018 47.4141 85.9999 48.0763C85.9999 48.0763 85.9999 48.0763 85.9999 48.0763C85.9946 49.8924 85.8427 51.727 85.5354 53.5651ZM82.088 58.8762C75.4485 66.8872 64.5221 70.7585 53.8138 67.8892C39.1603 63.963 30.4644 48.9011 34.3907 34.2476L34.3907 34.2476C36.672 25.7339 42.7112 19.2323 50.2455 16.0479C36.8079 16.7833 24.771 26.0142 21.0985 39.72C16.5256 56.7863 26.6536 74.3286 43.72 78.9015C59.902 83.2374 76.5118 74.3566 82.088 58.8762ZM60.7722 15.2617L60.7973 15.1679L60.7722 15.2617Z" fill="black"/>
</mask>
<g mask="url(#mask1_872_377)">
<path fill-rule="evenodd" clip-rule="evenodd" d="M84.6787 52.0646C82.7057 56.6949 79.4565 60.6911 75.2734 63.5381L75.2733 63.5381C69.781 67.276 63.0934 68.7492 56.5678 67.6525C50.0428 66.5559 44.1804 62.9741 40.1637 57.6454C36.1475 52.3178 34.2738 45.6401 34.9139 38.9652L34.9139 38.9652C35.5543 32.29 38.6621 26.1042 43.619 21.6655C47.5217 18.1708 52.3405 15.9657 57.4393 15.2884C57.1958 15.2494 56.9517 15.2132 56.7069 15.1797C49.2033 14.1558 41.5816 15.8338 35.1575 19.9293C28.7326 24.0255 23.9058 30.2852 21.5205 37.6331C19.1351 44.9816 19.3442 52.9491 22.1111 60.1566C24.8777 67.3632 30.0248 73.3503 36.6541 77.0903C43.2826 80.8298 50.9806 82.091 58.4202 80.66L58.7979 82.624C50.891 84.1449 42.711 82.8037 35.6713 78.8322C28.6319 74.8608 23.1751 68.5085 20.2439 60.8734C17.3128 53.238 17.0915 44.7994 19.6183 37.0156C22.145 29.2318 27.2611 22.5917 34.0824 18.2429C40.9037 13.8941 49.0018 12.1097 56.9773 13.1981C59.8929 13.596 62.7251 14.3687 65.412 15.4833C70.0747 17.4176 74.2995 20.3817 77.7621 24.2038C74.229 20.616 69.7082 18.2582 64.8433 17.4134C63.7638 17.226 62.6673 17.113 61.5608 17.0777C55.4686 16.883 49.5316 19.0558 44.9532 23.1555C40.3748 27.2552 37.4977 32.9753 36.9048 39.1562C36.312 45.3369 38.0479 51.5162 41.7607 56.4415C45.4734 61.3668 50.8852 64.6695 56.8993 65.6802C62.9134 66.6909 69.0795 65.3342 74.1481 61.8847C79.2167 58.4351 82.8083 53.1512 84.1952 47.1037C84.4223 46.1134 84.5875 45.1147 84.6916 44.1134C85.2232 39.0001 84.1617 33.8167 81.6167 29.3172C84.395 33.8046 86.1269 38.8613 86.7028 44.1002C86.8466 45.4074 86.9183 46.726 86.9164 48.0498C86.9188 56.2485 84.1104 64.1903 78.9763 70.5031C73.8422 76.816 66.7049 81.1032 58.7979 82.624L58.4202 80.66C65.8602 79.229 72.5838 75.1935 77.4246 69.2412L78.8457 70.3968L77.4247 69.2411C81.4234 64.3244 83.9289 58.3558 84.6787 52.0646Z" fill="black"/>
</g>
</g>
<defs>
<clipPath id="clip0_872_377">
<rect width="100" height="100" fill="white"/>
</clipPath>
</defs>
</svg>
